X:1
L:1/8
Q:1/4=120
M:4/4
K:F
A, |"Eb7" (3B,_DF c4 BF |"Dm" ^G A3- A3 A, |"Eb7" (3B,_DF c4 BF |"Dm" A4 z2 z A, | 
"Eb7" (3B,_DF c4 BF |"Dm" ^G A3- A4 |"Em7b5" ABAG"A7b5" _E2 ^CD- |"Dm" D4 z2 z A, | 
